X:1
T: Cameron's got his wife again
C:
R:Reel
Q: 232
K:D
M:4/4
L:1/16
|:B2|d3B A3F AAA2 A3B|d3B A3F EEE2 E3c|d3B A3F Ag3 f3e|d3B A3F DDD2 D2B2|
d3B A3F AAA2 A3B|d3B A3F EEE2 E3c|d3B A3F Ag3 f3e|d3B A3F DDD2 D2g2|
f3d fa3 eg3 f3e|f3d fa3 BBB2 B3g|f3d fa3 eg3 f3e|d3B A3F DDD2 D3g|
f3d fa3 eg3 f3e|f3d fa3 BBB2 B3c|defg a3f eg3 f3e|d3B A3F DDD2 D2:|
